assets/img/svg/token.svg

<svg enable-background="new 0 0 512 512" height="512" viewBox="0 0 512 512" width="512" xmlns="http://www.w3.org/2000/svg"><g fill="#fdfbfb"><path d="m437.019 74.981c-48.352-48.352-112.639-74.981-181.019-74.981-34.35 0-67.692 6.692-99.1 19.889l5.846 13.913c27.243-11.447 56.041-17.678 85.708-18.582v41.039c-49.433 1.844-94.328 21.719-128.291 53.231l-29.073-29.071c13.9-13.086 29.455-24.627 46.468-34.25l-7.432-13.135c-38.794 21.946-71.365 53.792-94.19 92.095-23.509 39.449-35.936 84.704-35.936 130.871 0 68.38 26.629 132.668 74.981 181.019s112.638 74.981 181.019 74.981c68.38 0 132.667-26.629 181.019-74.981 48.353-48.352 74.981-112.639 74.981-181.019s-26.628-132.667-74.981-181.019zm59.761 173.473h-41.039c-1.807-48.424-20.91-92.498-51.312-126.204l29.016-29.016c37.798 41.176 61.487 95.493 63.335 155.22zm-233.234-233.233c61.747 1.911 117.712 27.163 159.351 67.218l-28.986 28.986c-34.199-32.638-79.924-53.283-130.365-55.166zm-183.116 75.879 29.062 29.062c-31.513 33.964-51.388 78.859-53.232 128.292h-41.046c1.862-59.225 25.574-115.054 65.216-157.354zm-65.209 172.446h41.037c1.882 50.441 22.528 96.167 55.166 130.366l-28.985 28.985c-40.055-41.639-65.308-97.605-67.218-159.351zm233.233 233.233c-59.727-1.847-114.044-25.536-155.219-63.336l29.016-29.015c33.706 30.402 77.78 49.505 126.204 51.312v41.039zm15.093 0v-41.034h-.001c23.267-.858 45.913-5.675 67.419-14.381l-5.663-13.989c-22.017 8.912-45.333 13.431-69.301 13.431-101.903 0-184.806-82.904-184.806-184.806s82.902-184.806 184.805-184.806c101.902 0 184.806 82.904 184.806 184.806 0 67.137-36.507 129.102-95.273 161.71l7.321 13.196c14.297-7.933 27.371-17.478 39.056-28.325l28.93 28.93c-41.416 38.921-96.556 63.389-157.293 65.268zm167.964-75.939-28.933-28.933c32.088-34.649 51.349-80.048 53.172-128.361h41.029c-1.879 60.738-26.347 115.879-65.268 157.294z"/><path d="m247.991 96.172h16.029v15.091h-16.029z"/><path d="m247.991 400.735h16.029v15.091h-16.029z"/><path d="m95.709 248.453h16.03v15.091h-16.03z"/><path d="m135.782 136.254h16.029v15.091h-16.029z"/><path d="m368.208 144.263h16.029v15.091h-16.029z"/><path d="m368.208 352.644h16.029v15.091h-16.029z"/><path d="m127.763 352.644h16.03v15.091h-16.03z"/><path d="m400.262 248.453h16.03v15.091h-16.03z"/><path d="m174.436 256 81.564 108.752 81.564-108.752-81.564-108.752zm81.564 83.6-62.699-83.6 62.699-83.6 62.699 83.6z"/></g></svg>

<?xml version="1.0" encoding="iso-8859-1"?>
<!-- Generator: Adobe Illustrator 19.0.0, SVG Export Plug-In . SVG Version: 6.00 Build 0)  -->
<svg xmlns="http://www.w3.org/2000/svg" xmlns:xlink="http://www.w3.org/1999/xlink" version="1.1" id="Capa_1" x="0px" y="0px" viewBox="0 0 512 512" style="enable-background:new 0 0 512 512;" xml:space="preserve" width="512px" height="512px">
<g>
	<g>
		<g>
			<path d="M437.019,74.981C388.667,26.629,324.38,0,256,0c-34.35,0-67.692,6.692-99.1,19.889l5.846,13.913     c27.243-11.447,56.041-17.678,85.708-18.582v41.039c-49.433,1.844-94.328,21.719-128.291,53.231L91.09,80.419     c13.9-13.086,29.455-24.627,46.468-34.25l-7.432-13.135c-38.794,21.946-71.365,53.792-94.19,92.095     C12.427,164.578,0,209.833,0,256c0,68.38,26.629,132.668,74.981,181.019S187.619,512,256,512     c68.38,0,132.667-26.629,181.019-74.981C485.372,388.667,512,324.38,512,256S485.372,123.333,437.019,74.981z M496.78,248.454     h-41.039c-1.807-48.424-20.91-92.498-51.312-126.204l29.016-29.016C471.243,134.41,494.932,188.727,496.78,248.454z      M263.546,15.221c61.747,1.911,117.712,27.163,159.351,67.218l-28.986,28.986c-34.199-32.638-79.924-53.283-130.365-55.166     V15.221z M80.43,91.1l29.062,29.062c-31.513,33.964-51.388,78.859-53.232,128.292H15.214C17.076,189.229,40.788,133.4,80.43,91.1     z M15.221,263.546h41.037c1.882,50.441,22.528,96.167,55.166,130.366l-28.985,28.985     C42.384,381.258,17.131,325.292,15.221,263.546z M248.454,496.779c-59.727-1.847-114.044-25.536-155.219-63.336l29.016-29.015     c33.706,30.402,77.78,49.505,126.204,51.312V496.779z M263.547,496.779v-41.034h-0.001c23.267-0.858,45.913-5.675,67.419-14.381     l-5.663-13.989c-22.017,8.912-45.333,13.431-69.301,13.431c-101.903,0-184.806-82.904-184.806-184.806S154.097,71.194,256,71.194     c101.902,0,184.806,82.904,184.806,184.806c0,67.137-36.507,129.102-95.273,161.71l7.321,13.196     c14.297-7.933,27.371-17.478,39.056-28.325l28.93,28.93C379.424,470.432,324.284,494.9,263.547,496.779z M431.511,420.84     l-28.933-28.933c32.088-34.649,51.349-80.048,53.172-128.361h41.029C494.9,324.284,470.432,379.425,431.511,420.84z" fill="#FDFBFB"/>
			<rect x="247.991" y="96.172" width="16.029" height="15.091" fill="#FDFBFB"/>
			<rect x="247.991" y="400.735" width="16.029" height="15.091" fill="#FDFBFB"/>
			<rect x="95.709" y="248.453" width="16.03" height="15.091" fill="#FDFBFB"/>
			<rect x="135.782" y="136.254" width="16.029" height="15.091" fill="#FDFBFB"/>
			<rect x="368.208" y="144.263" width="16.029" height="15.091" fill="#FDFBFB"/>
			<rect x="368.208" y="352.644" width="16.029" height="15.091" fill="#FDFBFB"/>
			<rect x="127.763" y="352.644" width="16.03" height="15.091" fill="#FDFBFB"/>
			<rect x="400.262" y="248.453" width="16.03" height="15.091" fill="#FDFBFB"/>
			<path d="M174.436,256L256,364.752L337.564,256L256,147.248L174.436,256z M256,339.6L193.301,256L256,172.4l62.699,83.6L256,339.6     z" fill="#FDFBFB"/>
		</g>
	</g>
</g>
</svg>
